la/cross-solid.svg

<svg xmlns="http://www.w3.org/2000/svg" viewBox="0 0 32 32" height="1em" width="1em">
  <path d="M13 3v6H7v6h6v14h6V15h6V9h-6V3Zm2 2h2v6h6v2h-6v14h-2V13H9v-2h6Z"/>
</svg>

<svg xmlns="http://www.w3.org/2000/svg" viewBox="0 0 32 32" height="1em" width="1em">
  <path d="M 13 3 L 13 9 L 7 9 L 7 15 L 13 15 L 13 29 L 19 29 L 19 15 L 25 15 L 25 9 L 19 9 L 19 3 Z M 15 5 L 17 5 L 17 11 L 23 11 L 23 13 L 17 13 L 17 27 L 15 27 L 15 13 L 9 13 L 9 11 L 15 11 Z"/>
</svg>
